X: 2382
T: Balance The Straw
R: jig
M: 6/8
K: Gmajor
|:D|G2 B BAB|c2 A ABc|ded cBA|B2 G G2:|
B|.d2 d d2 B|c2 B B2 A|.e2 d d2 B|.c2 B A3|
G2 B BAB|c2 A ABc|ded cBA|B2 G G2 B|
.d2 d d2 B|c2 B B2 A|e3 d3|c3 A3|
G2 B BAB|c2 A ABc|ded cBA|B2 G G2||

